app/img/auth-bg-tablet--registration.svg

<?xml version="1.0" encoding="UTF-8"?>
<svg width="768" height="1024" viewBox="0 0 768 1024" version="1.1" xmlns="http://www.w3.org/2000/svg" xmlns:xlink="http://www.w3.org/1999/xlink">
    <defs>
        <linearGradient x1="0.386639031%" y1="50.386639%" x2="99.613361%" y2="50.386639%" id="linearGradient-1">
            <stop stop-color="#F7AB42" offset="0%"></stop>
            <stop stop-color="#FBA093" offset="100%"></stop>
        </linearGradient>
    </defs>
    <g id="Goody_Autorisation-Copy" stroke="none" stroke-width="1" fill="none" fill-rule="evenodd">
        <path d="M319.138973,-3.13708495 C315.414662,110.792826 349.573524,199.503384 421.615562,262.994587 C529.678619,358.231392 567.420633,505.272099 575.072296,577.89038 C578.00306,605.704862 598.925181,677.930905 641.210738,725.870867 C662.086805,749.538472 704.753961,775.132964 769.212206,802.654345 L769.212206,-1.96236519" id="Path-3" fill="#D8D8D8" opacity="0.36"></path>
        <g id="Strelki" transform="translate(217.000000, 0.000000)" fill="url(#linearGradient-1)">
            <path d="M551,708.914615 C536.124689,706.531734 529.715055,703.366753 497.472966,672.959299 C371.959735,554.588008 437.119306,383.890667 279.73233,260.978438 C255.428603,241.998308 222.85816,237.331625 188.377548,222.1393 C163.082162,210.99403 136.741496,195.73565 111.777389,174.458872 C92.1923253,157.766625 73.4545138,137.37014 56.7333777,112.34942 C35.0726199,79.9372823 16.161494,42.4874757 0,0 L551,0 C560.916874,474.19833 560.916874,710.503202 551,708.914615 Z" id="Path-9"></path>
        </g>
    </g>
</svg>

<svg width="768" height="1024" xmlns="http://www.w3.org/2000/svg"><defs><linearGradient x1=".3866%" y1="50.3866%" x2="99.6134%" y2="50.3866%" id="a"><stop stop-color="#F7AB42" offset="0%"/><stop stop-color="#FBA093" offset="100%"/></linearGradient></defs><g fill="none" fill-rule="evenodd"><path d="M319.139-3.137c-3.7243 113.9298 30.4345 202.6404 102.4766 266.1316 108.063 95.2368 145.805 242.2775 153.4567 314.8958 2.9308 27.8145 23.8529 100.0405 66.1384 147.9805 20.8761 23.6676 63.5433 49.262 128.0015 76.7834V-1.9624" fill="#D8D8D8" opacity=".36"/><path d="M551 708.9146c-14.8753-2.3829-21.285-5.5478-53.527-35.9553-125.5133-118.3713-60.3537-289.0686-217.7407-411.9809-24.3037-18.98-56.8741-23.6468-91.3548-38.8391-25.2953-11.1453-51.636-26.4036-76.6001-47.6804-19.585-16.6923-38.3229-37.0888-55.044-62.1095C35.0726 79.9373 16.1614 42.4874 0 0h551c9.9169 474.1983 9.9169 710.5032 0 708.9146z" transform="translate(217)" fill="url(#a)"/></g></svg>
